X:1
T:Daphne Quadrill,La. JGi.085
L:1/8
Q:3/8=120
M:6/8
I:linebreak $
K:G
V:1 treble 
V:1
 d | d2 B gec | d2 B GAB | cBc edc | c3{dc} B2 d | d2 B gec | d2 B GAB | BAe edF | G3- G3 :: B |$ %10
 A2 A e2 d | (G3 A3) | B2 A B2 d | B2{cB} A2 B | A2 A e2 d | G3 A3 | B2 A B2 ^c | d3 DFA | %18
 dAd fed |$ d2 ^c Acd | eAg gfe | e2 d f2 f | g2 g e2 e | a3 d2 f | B2 g e2 ^c | d3 d3!D.C.! :| %26
